X: 1461
T: Nevbahâr-ı Hüsnüne Ermez Hazân
C: Rahmi Bey
O: Turkey
F: http://compmusic.upf.edu/node/140
N: sedaraban--sarki--yuruksemai_ii--nevbahar-i_nusnune--rahmi_bey
N: makam= sedaraban
N: form= sarki
N: usul= yuruksemai_ii = 6/8
M: 6/8
L: 1/16
K: C _7/8B _7/8e ^f ^c
Q: 1/4=144
%%MIDI tuningsystem comma53
d2c2 d2e2 d2c2  | c2B2 c2d2 c2B2  | B2A2 B2c2 B2A2  | \
w:  ARANAĞME  |   |   | 
e2d2 c2B2 A2G2  | 
w:   | 
d2c2 d2e2 d2c2  | c2B2 c2d2 c2B2  | B2A2 B2c2 B2A2  | \
w:  ARANAĞME  |   |   | 
G4 B2A6  | 
w:   | 
A2G2 A2B2 A2G2  | G2F2 G2A2 G2F2  | F2E2 F2G2 F2E2  | \
w:   |   |   | 
D2C2 E2D4z2  | 
w:   | 
A2G2 A2B2 A2G2  | G2F2 G2A2 G2F2  | F2E2 F2G2 F2E2  | \
w:   |   |   | 
D2C2 E2D4z2  | 
w:   | 
d4 f2e2 d2c2  | d2c2 d2e2 d2e2  | f2g2 a2f2 e2d2  | \
w:  Nev ba hâr_  |  ı   |  hüs *  nü ne   | 
a2g2 a2b2 a2g2  | 
w:  er  | 
f2e2 d2c2 d2e2  | d8-d2z2  | =c4 d2d2 c2B2  | \
w:  mez  *  *  *  *  ha  |  zân    |  Ta ze dir   | 
=f2e2 d2d2 =c2B2  | =c4 e2d2 c2B2  | 
w:  ter  |  dir  ci vâ  | 
A2B2 =c2d2 c2B2  | B2A2 G2F2 G2A2  | \
w:  nım   |  her  *  *  *  *  za  | 
G8-G2z2  | d2=c2 B2A2 B2c2  | 
w:  man    |  Ta *  ze dir   | 
A2B2 A2G2 F2E2  | F2G2 A2F2 E2D2  | D2E2 D2A2 G2A2  | \
w:  ter  |  dir  *  ci vâ  |  nım   | 
F2E2 D2E2 D2C2  | 
w:  her  *  *  *  *  za  | 
D8-D2z2  | g4 a2a6  | =c'2b2 a2b2 a2g2  | \
w:  man    |  Da i ma   |  par  | 
a2g2 f2g2 f2e2  | d2e2 f2g2 a2b2  | 
w:  lar  *  yü zün  |  de   | 
=c'2b2 a2b2 a2g2  | a8-a2z2  | g4 a2a6  | \
w:  hüsn_ *  *  *  *  ü   |  an    |  Da i ma   | 
a2b2 a2g2 f2e2  | f2g2 a2f2 e2d2  | 
w:  par  |  lar  *  yü zün  | 
d2e2 d2a2 g2a2  | f2e2 d2e2 d2c2  | d8-d2z2  | \
w:  de   |  hüsn_ *  *  *  *  ü   |  an    | 
=c4 d2d2 c2B2  | =f2e2 d2d2 =c2B2  | 
w:  Ta ze dir   |  ter  | 
=c4 e2d2 c2B2  | A2B2 =c2d2 c2B2  | B2A2 G2F2 G2A2  | \
w:  dir  ci vâ  |  nım   |  her  *  *  *  *  za  | 
G8-G2z2  | d2=c2 B2A2 B2c2  | 
w:  man    |  Ta *  ze dir   | 
A2B2 A2G2 F2E2  | F2G2 A2F2 E2D2  | D2E2 D2A2 G2A2  | \
w:  ter  |  dir  *  ci vâ  |  nım   | 
F2E2 D2E2 D2C2  | 
w:  her  *  *  *  *  za  | 
D8-D2z2  | |


